X:1
T:Highland Laddie
C:Trad Scots tune (pre-1800)
S:Public domain or original as noted in notes.md
M:2/4
L:1/8
Q:1/4=92
K:Amix
H:A mixolydian starter arrangement for Great Highland Bagpipe. Refs #1
A B d e | f e d B | A B d f | e2 d2 |
A B d e | f e d B | G A B d | A4 |
f a f e | d f e d | A B d f | e2 d2 |
A B d e | f e d B | G A B d | A4 |]
